X:485
T: TREU GELIEBT UND STILL GESCHWIEGEN
N: F0920
O: Europa, Mitteleuropa, Deutschland
R: Liebes - Lied
M: 4/4
L: 1/16
K: A
 | E6A2c4c4 | B6G2A4E4 |
E6A2c4c4 | (3B2^A2B2(3d2c2B2=A8
c6c2B6B2 | (3A2G2A2(3c2B2A2A4G4
E2B2A2G2F2BcBAGF | E6F2E4z4 |
E6F2G4A4 | B6c2A4E4 |
E6F2G4A4 | (3B2^A2B2(3d2c2B2B8
c6=A2A4d4 | c4B2A2e4d4 |
B6=c2(3^c2B2A2(3A2G2F2 | E6D2C8 |
B2c2d2^d2(3e2c2A2(3F2=d2B2 | A6B2A4z4

@@@ Tune index: 5916
